src/assets/filled/Logout.svg

<svg width="24" height="24" viewBox="0 0 24 24"  xmlns="http://www.w3.org/2000/svg">
<path d="M16.8 2H14.2C11 2 9 4 9 7.2V11.25H15.25C15.66 11.25 16 11.59 16 12C16 12.41 15.66 12.75 15.25 12.75H9V16.8C9 20 11 22 14.2 22H16.79C19.99 22 21.99 20 21.99 16.8V7.2C22 4 20 2 16.8 2Z" />
<path d="M4.55994 11.2501L6.62994 9.18009C6.77994 9.03009 6.84994 8.84009 6.84994 8.65009C6.84994 8.46009 6.77994 8.26009 6.62994 8.12009C6.33994 7.83009 5.85994 7.83009 5.56994 8.12009L2.21994 11.4701C1.92994 11.7601 1.92994 12.2401 2.21994 12.5301L5.56994 15.8801C5.85994 16.1701 6.33994 16.1701 6.62994 15.8801C6.91994 15.5901 6.91994 15.1101 6.62994 14.8201L4.55994 12.7501H8.99994V11.2501H4.55994Z" />
</svg>

<?xml version="1.0" encoding="UTF-8"?>
<svg width="24" height="24" viewBox="0 0 24 24" xmlns="http://www.w3.org/2000/svg">
 <path d="m16.8 2h-2.6c-3.2 0-5.2 2-5.2 5.2v4.05h6.25c0.41 0 0.75 0.34 0.75 0.75s-0.34 0.75-0.75 0.75h-6.25v4.05c0 3.2 2 5.2 5.2 5.2h2.59c3.2 0 5.2-2 5.2-5.2v-9.6c0.01-3.2-1.99-5.2-5.19-5.2z"/>
 <path d="m4.5599 11.25 2.07-2.07c0.15-0.15 0.22-0.34 0.22-0.53s-0.07-0.39-0.22-0.53c-0.29-0.29-0.77-0.29-1.06 0l-3.35 3.35c-0.29 0.29-0.29 0.77 0 1.06l3.35 3.35c0.29 0.29 0.77 0.29 1.06 0s0.29-0.77 0-1.06l-2.07-2.07h4.44v-1.5h-4.44z"/>
</svg>
